; generated by Slic3r 1.1.7 on 2014-10-17 at 21:46:05

; perimeters extrusion width = 0.40mm
; infill extrusion width = 0.67mm
; solid infill extrusion width = 0.67mm
; top infill extrusion width = 0.67mm

G21 ; set units to millimeters
M107
M104 S220 ; set temperature
G28 ; home all axes
M106 S255;
G1 Z200 F1200 ; lift nozzle
M109 S220 ; wait for temperature to be reached
G90 ; use absolute coordinates
G92 E0
M82 ; use absolute distances for extrusion
G1 F1800.000 E-1.00000
G92 E0
G1 Z0.300 F7200.000
G1 X94.517 Y53.463 F7200.000
G1 E1.00000 F1800.000
G1 X94.777 Y53.054 E1.03302 F1080.000
G1 X95.353 Y52.259 E1.09981
G1 X96.333 Y51.170 E1.19959
G1 X97.442 Y50.211 E1.29941
G1 X98.661 Y49.400 E1.39911
G1 X99.086 Y49.166 E1.43217
G1 X99.973 Y48.748 E1.49891
G1 X100.423 Y48.570 E1.53186
G1 X101.357 Y48.265 E1.59874
G1 X101.826 Y48.145 E1.63174
G1 X102.788 Y47.960 E1.69847
G1 X103.269 Y47.900 E1.73143
G1 X104.008 Y47.840 E1.78190
G1 X195.741 Y47.833 E8.02827
G1 X196.713 Y47.897 E8.09461 F1080.000
G1 X198.157 Y48.141 E8.19429
G1 X199.560 Y48.563 E8.29407
G1 X200.011 Y48.742 E8.32708
G1 X200.899 Y49.158 E8.39387
G1 X202.152 Y49.916 E8.49358
G1 X202.543 Y50.201 E8.52654
G1 X203.301 Y50.826 E8.59343
G1 X203.654 Y51.157 E8.62637
G1 X204.327 Y51.872 E8.69326
G1 X204.636 Y52.245 E8.72624
G1 X205.213 Y53.039 E8.79308
G1 X205.946 Y54.306 E8.89276
G1 X206.152 Y54.744 E8.92569
G1 X206.515 Y55.657 E8.99261
G1 X206.664 Y56.117 E9.02553
G1 X206.909 Y57.067 E9.09233
G1 X207.000 Y57.542 E9.12528
G1 X207.125 Y58.518 E9.19223
G1 X207.171 Y59.500 E9.25920
G1 X207.167 Y150.741 E15.47203
G1 X207.103 Y151.713 E15.53838
G1 X206.859 Y153.157 E15.63805
G1 X206.437 Y154.559 E15.73779
G1 X205.842 Y155.899 E15.83760
G1 X205.073 Y157.167 E15.93858
G1 X204.174 Y158.301 E16.03712
G1 X203.128 Y159.327 E16.13688
G1 X201.945 Y160.224 E16.23795
G1 X200.694 Y160.946 E16.33635
G1 X199.343 Y161.515 E16.43616
G1 X197.934 Y161.909 E16.53581
G1 X196.464 Y162.126 E16.63697
G1 X195.500 Y162.171 E16.70266
G1 X104.259 Y162.167 E22.91549
G1 X103.268 Y162.100 E22.98312
G1 X101.843 Y161.859 E23.08151
G1 X100.441 Y161.437 E23.18122
G1 X99.102 Y160.842 E23.28097
G1 X97.848 Y160.084 E23.38076
G1 X96.699 Y159.174 E23.48059
G1 X95.673 Y158.128 E23.58035
G1 X94.776 Y156.945 E23.68141
G1 X94.054 Y155.694 E23.77981
G1 X93.485 Y154.344 E23.87953
G1 X93.087 Y152.915 E23.98057
G1 X92.875 Y151.483 E24.07908
G1 X92.829 Y150.500 E24.14613
G1 X92.844 Y59.019 E30.37528
G1 X92.874 Y58.535 E30.40831
G1 X92.996 Y57.560 E30.47519
G1 X93.087 Y57.084 E30.50822
G1 X93.330 Y56.135 E30.57492
G1 X93.480 Y55.674 E30.60794
G1 X93.840 Y54.761 E30.67477
G1 X94.490 Y53.516 E30.77037
G1 X94.988 Y53.761 F7200.000
G1 X95.248 Y53.352 E30.80338 F1080.000
G1 X95.782 Y52.614 E30.86541
G1 X96.714 Y51.576 E30.96043
G1 X97.769 Y50.662 E31.05548
G1 X98.929 Y49.889 E31.15043
G1 X99.355 Y49.655 E31.18347
G1 X100.178 Y49.266 E31.24546
G1 X100.628 Y49.088 E31.27841
G1 X101.495 Y48.805 E31.34052
G1 X101.964 Y48.685 E31.37352
G1 X102.858 Y48.513 E31.43549
G1 X103.338 Y48.452 E31.46845
G1 X104.025 Y48.397 E31.51535
G1 X195.724 Y48.389 E37.75933
G1 X196.643 Y48.450 E37.82209 F1080.000
G1 X198.018 Y48.680 E37.91701
G1 X199.355 Y49.081 E38.01204
G1 X199.806 Y49.260 E38.04504
G1 X200.630 Y49.646 E38.10707
G1 X201.824 Y50.367 E38.20203
G1 X202.216 Y50.651 E38.23498
G1 X202.920 Y51.232 E38.29711
G1 X203.272 Y51.563 E38.33005
G1 X203.898 Y52.227 E38.39217
G1 X204.206 Y52.600 E38.42515
G1 X204.743 Y53.337 E38.48722
G1 X205.442 Y54.544 E38.58215
G1 X205.648 Y54.981 E38.61507
G1 X205.985 Y55.829 E38.67723
G1 X206.135 Y56.289 E38.71015
G1 X206.362 Y57.171 E38.77219
G1 X206.453 Y57.647 E38.80514
G1 X206.569 Y58.553 E38.86732
G1 X206.614 Y59.500 E38.93191
G1 X206.611 Y150.724 E45.14355
G1 X206.550 Y151.644 E45.20632
G1 X206.320 Y153.018 E45.30123
G1 X205.919 Y154.354 E45.39622
G1 X205.354 Y155.630 E45.49126
G1 X204.622 Y156.840 E45.58748
G1 X203.768 Y157.920 E45.68126
G1 X202.773 Y158.898 E45.77625
G1 X201.647 Y159.753 E45.87255
G1 X200.456 Y160.442 E45.96620
G1 X199.171 Y160.985 E46.06124
G1 X197.829 Y161.362 E46.15613
G1 X196.429 Y161.570 E46.25253
G1 X195.500 Y161.614 E46.31584
G1 X104.276 Y161.611 E52.52747
G1 X103.338 Y161.548 E52.59153
G1 X101.982 Y161.320 E52.68516
G1 X100.646 Y160.919 E52.78012
G1 X99.371 Y160.354 E52.87510
G1 X98.176 Y159.633 E52.97013
G1 X97.080 Y158.768 E53.06519
G1 X96.102 Y157.773 E53.16019
G1 X95.247 Y156.647 E53.25648
G1 X94.558 Y155.456 E53.35013
G1 X94.015 Y154.172 E53.44508
G1 X93.634 Y152.810 E53.54136
G1 X93.431 Y151.448 E53.63511
G1 X93.386 Y150.500 E53.69977
G1 X93.400 Y59.054 E59.92654
G1 X93.430 Y58.570 E59.95957
G1 X93.544 Y57.665 E60.02168
G1 X93.634 Y57.188 E60.05470
G1 X93.860 Y56.307 E60.11665
G1 X94.009 Y55.846 E60.14967
G1 X94.344 Y54.998 E60.21173
G1 X94.960 Y53.815 E60.30257
G1 X95.458 Y54.060 F7200.000
G1 X95.718 Y53.651 E60.33558 F1080.000
G1 X96.211 Y52.970 E60.39285
G1 X97.095 Y51.982 E60.48311
G1 X98.097 Y51.113 E60.57339
G1 X99.198 Y50.377 E60.66358
G1 X99.623 Y50.143 E60.69662
G1 X100.383 Y49.784 E60.75385
G1 X100.833 Y49.606 E60.78680
G1 X101.634 Y49.345 E60.84415
G1 X102.103 Y49.224 E60.87714
G1 X102.928 Y49.066 E60.93436
G1 X103.408 Y49.005 E60.96731
G1 X104.043 Y48.954 E61.01064
G1 X195.706 Y48.946 E67.25224
G1 X196.574 Y49.003 E67.31142 F1080.000
G1 X197.880 Y49.220 E67.40159
G1 X199.150 Y49.599 E67.49185
G1 X199.600 Y49.778 E67.52484
G1 X200.362 Y50.135 E67.58212
G1 X201.497 Y50.818 E67.67231
G1 X201.888 Y51.102 E67.70527
G1 X202.538 Y51.638 E67.76263
G1 X202.891 Y51.969 E67.79556
G1 X203.468 Y52.582 E67.85293
G1 X203.777 Y52.956 E67.88589
G1 X204.273 Y53.636 E67.94321
G1 X204.938 Y54.781 E68.03338
G1 X205.144 Y55.218 E68.06630
G1 X205.455 Y56.001 E68.12369
G1 X205.605 Y56.461 E68.15661
G1 X205.815 Y57.276 E68.21389
G1 X205.906 Y57.751 E68.24684
G1 X206.013 Y58.587 E68.30426
G1 X206.057 Y59.500 E68.36647
G1 X206.054 Y150.706 E74.57691
G1 X205.997 Y151.574 E74.63611
G1 X205.780 Y152.880 E74.72626
G1 X205.401 Y154.149 E74.81649
G1 X204.865 Y155.362 E74.90676
G1 X204.171 Y156.512 E74.99822
G1 X203.362 Y157.538 E75.08723
G1 X202.418 Y158.468 E75.17747
G1 X201.348 Y159.283 E75.26900
G1 X200.219 Y159.938 E75.35789
G1 X198.999 Y160.455 E75.44817
G1 X197.725 Y160.815 E75.53831
G1 X196.394 Y161.014 E75.62993
G1 X195.500 Y161.057 E75.69086
G1 X104.294 Y161.054 E81.90130
G1 X103.427 Y160.997 E81.96048
G1 X102.120 Y160.780 E82.05066
G1 X100.851 Y160.401 E82.14085
G1 X99.639 Y159.866 E82.23108
G1 X98.503 Y159.182 E82.32134
G1 X97.462 Y158.362 E82.41163
G1 X96.532 Y157.418 E82.50187
G1 X95.717 Y156.348 E82.59340
G1 X95.062 Y155.219 E82.68229
G1 X94.545 Y154.000 E82.77248
G1 X94.181 Y152.706 E82.86400
G1 X93.987 Y151.413 E82.95298
G1 X93.943 Y150.500 E83.01525
G1 X93.956 Y59.089 E89.23965
G1 X93.986 Y58.605 E89.27267
G1 X94.091 Y57.769 E89.33002
G1 X94.182 Y57.293 E89.36303
G1 X94.389 Y56.479 E89.42023
G1 X94.539 Y56.018 E89.45324
G1 X94.848 Y55.235 E89.51054
G1 X95.431 Y54.113 E89.59663
G1 F1800.000 E88.59663
G92 E0
G1 X122.025 Y96.276 F7200.000
G1 E1.00000 F1800.000
G1 X121.812 Y96.611 E1.02706 F1080.000
G1 X121.559 Y96.918 E1.05415
G1 X121.269 Y97.190 E1.08122
G1 X120.947 Y97.424 E1.10831
G1 X120.598 Y97.616 E1.13540
G1 X120.229 Y97.762 E1.16248
G1 X119.843 Y97.861 E1.18956
G1 X119.449 Y97.911 E1.21663
G1 X119.051 Y97.911 E1.24370
G1 X118.657 Y97.861 E1.27078
G1 X118.272 Y97.762 E1.29786
G1 X117.901 Y97.616 E1.32496
G1 X117.553 Y97.424 E1.35205
G1 X117.231 Y97.190 E1.37911
G1 X116.941 Y96.918 E1.40620
G1 X116.688 Y96.612 E1.43327
G1 X116.475 Y96.276 E1.46035
G1 X116.305 Y95.916 E1.48746
G1 X116.183 Y95.537 E1.51453
G1 X116.108 Y95.147 E1.54160
G1 X116.083 Y94.750 E1.56869
G1 X116.108 Y94.353 E1.59578
G1 X116.183 Y93.962 E1.62284
G1 X116.305 Y93.584 E1.64992
G1 X116.475 Y93.224 E1.67702
G1 X116.688 Y92.889 E1.70409
G1 X116.941 Y92.582 E1.73118
G1 X117.231 Y92.310 E1.75826
G1 X117.553 Y92.076 E1.78532
G1 X117.902 Y91.884 E1.81243
G1 X118.271 Y91.738 E1.83950
G1 X118.657 Y91.639 E1.86660
G1 X119.051 Y91.589 E1.89365
G1 X119.449 Y91.589 E1.92073
G1 X119.747 Y91.627 E1.94118
G1 X120.229 Y91.738 E1.97485 F1080.000
G1 X120.598 Y91.884 E2.00191
G1 X120.947 Y92.076 E2.02900
G1 X121.269 Y92.310 E2.05610
G1 X121.559 Y92.582 E2.08318
G1 X121.812 Y92.889 E2.11026
G1 X122.025 Y93.224 E2.13733
G1 X122.195 Y93.584 E2.16442
G1 X122.317 Y93.962 E2.19151
G1 X122.392 Y94.353 E2.21859
G1 X122.417 Y94.750 E2.24567
G1 X122.392 Y95.147 E2.27274
G1 X122.317 Y95.537 E2.29982
G1 X122.194 Y95.916 E2.32693
G1 X122.051 Y96.222 E2.34992
G1 X121.536 Y96.007 F7200.000
G1 X121.361 Y96.283 E2.37222 F1080.000
G1 X121.152 Y96.536 E2.39453
G1 X120.913 Y96.760 E2.41683
G1 X120.648 Y96.953 E2.43914
G1 X120.361 Y97.111 E2.46146
G1 X120.056 Y97.231 E2.48376
G1 X119.739 Y97.313 E2.50607
G1 X119.414 Y97.354 E2.52837
G1 X119.086 Y97.354 E2.55068
G1 X118.761 Y97.313 E2.57298
G1 X118.444 Y97.231 E2.59529
G1 X118.139 Y97.110 E2.61761
G1 X117.852 Y96.953 E2.63992
G1 X117.587 Y96.760 E2.66222
G1 X117.348 Y96.536 E2.68453
G1 X117.106 Y96.231 E2.71104
G1 X116.964 Y96.007 E2.72911
G1 X116.824 Y95.710 E2.75143
G1 X116.723 Y95.399 E2.77374
G1 X116.662 Y95.077 E2.79604
G1 X116.641 Y94.750 E2.81835
G1 X116.662 Y94.423 E2.84066
G1 X116.723 Y94.101 E2.86296
G1 X116.824 Y93.790 E2.88527
G1 X116.964 Y93.493 E2.90759
G1 X117.139 Y93.217 E2.92989
G1 X117.348 Y92.964 E2.95220
G1 X117.587 Y92.740 E2.97451
G1 X117.852 Y92.547 E2.99680
G1 X118.139 Y92.390 E3.01913
G1 X118.444 Y92.269 E3.04143
G1 X118.761 Y92.187 E3.06375
G1 X119.086 Y92.146 E3.08604
G1 X119.414 Y92.146 E3.10835 F1080.000
G1 X119.739 Y92.187 E3.13066
G1 X120.056 Y92.269 E3.15296
G1 X120.361 Y92.389 E3.17526
G1 X120.648 Y92.547 E3.19757
G1 X120.913 Y92.740 E3.21989
G1 X121.152 Y92.964 E3.24220
G1 X121.361 Y93.217 E3.26451
G1 X121.536 Y93.493 E3.28681
G1 X121.676 Y93.790 E3.30912
G1 X121.777 Y94.101 E3.33143
G1 X121.838 Y94.423 E3.35374
G1 X121.859 Y94.750 E3.37605
G1 X121.838 Y95.077 E3.39835
G1 X121.777 Y95.399 E3.42066
G1 X121.676 Y95.710 E3.44298
G1 X121.562 Y95.953 E3.46120
G1 X121.047 Y95.738 F7200.000
G1 X120.909 Y95.955 E3.47873 F540.000
G1 X120.745 Y96.154 E3.49627
G1 X120.557 Y96.330 E3.51380
G1 X120.349 Y96.481 E3.53134
G1 X120.123 Y96.605 E3.54887
G1 X119.884 Y96.700 E3.56641
G1 X119.634 Y96.764 E3.58394
G1 X119.379 Y96.797 E3.60147
G1 X119.121 Y96.797 E3.61901
G1 X118.866 Y96.764 E3.63654
G1 X118.616 Y96.700 E3.65408
G1 X118.377 Y96.605 E3.67162
G1 X118.151 Y96.481 E3.68915
G1 X117.943 Y96.330 E3.70668
G1 X117.755 Y96.154 E3.72422
G1 X117.591 Y95.955 E3.74175
G1 X117.453 Y95.738 E3.75929
G1 X117.343 Y95.505 E3.77683
G1 X117.264 Y95.260 E3.79436
G1 X117.216 Y95.007 E3.81189
G1 X117.199 Y94.750 E3.82943
G1 X117.214 Y94.520 E3.84512
G1 X117.264 Y94.240 E3.86448
G1 X117.343 Y93.995 E3.88202
G1 X117.453 Y93.762 E3.89956
G1 X117.591 Y93.545 E3.91709
G1 X117.755 Y93.346 E3.93463
G1 X117.943 Y93.170 E3.95216
G1 X118.151 Y93.019 E3.96969
G1 X118.377 Y92.895 E3.98723
G1 X118.616 Y92.800 E4.00476
G1 X118.866 Y92.736 E4.02230
G1 X119.121 Y92.704 E4.03983
G1 X119.379 Y92.704 E4.05737
G1 X119.607 Y92.732 E4.07305
G1 X119.884 Y92.800 E4.09242 F540.000
G1 X120.123 Y92.895 E4.10995
G1 X120.349 Y93.019 E4.12749
G1 X120.557 Y93.170 E4.14503
G1 X120.745 Y93.346 E4.16256
G1 X120.909 Y93.545 E4.18010
G1 X121.047 Y93.762 E4.19763
G1 X121.157 Y93.995 E4.21517
G1 X121.236 Y94.240 E4.23270
G1 X121.284 Y94.493 E4.25024
G1 X121.301 Y94.750 E4.26777
G1 X121.284 Y95.007 E4.28530
G1 X121.236 Y95.260 E4.30284
G1 X121.157 Y95.505 E4.32038
G1 X121.072 Y95.684 E4.33383
G1 F1800.000 E3.33383
G92 E0
G1 X119.604 Y92.448 F7200.000
G1 X119.449 Y77.411 F7200.000
G1 E1.00000 F1800.000
G1 X119.051 Y77.411 E1.02707 F1080.000
G1 X118.657 Y77.361 E1.05413
G1 X118.181 Y77.226 E1.08780
G1 X117.902 Y77.116 E1.10825
G1 X117.553 Y76.924 E1.13537
G1 X117.231 Y76.690 E1.16243
G1 X116.941 Y76.418 E1.18950
G1 X116.688 Y76.111 E1.21661
G1 X116.475 Y75.776 E1.24366
G1 X116.305 Y75.416 E1.27078
G1 X116.183 Y75.038 E1.29784
G1 X116.108 Y74.647 E1.32491
G1 X116.083 Y74.250 E1.35200
G1 X116.108 Y73.853 E1.37909
G1 X116.183 Y73.462 E1.40616
G1 X116.305 Y73.084 E1.43323
G1 X116.434 Y72.812 E1.45373
G1 X116.688 Y72.389 E1.48735
G1 X116.941 Y72.082 E1.51446
G1 X117.231 Y71.810 E1.54153
G1 X117.553 Y71.576 E1.56859
G1 X117.902 Y71.384 E1.59570
G1 X118.271 Y71.238 E1.62277
G1 X118.657 Y71.139 E1.64987
G1 X119.051 Y71.089 E1.67693
G1 X119.449 Y71.089 E1.70400
G1 X119.747 Y71.127 E1.72445
G1 X120.228 Y71.238 E1.75812 F1080.000
G1 X120.598 Y71.384 E1.78518
G1 X120.947 Y71.576 E1.81228
G1 X121.269 Y71.810 E1.83940
G1 X121.559 Y72.082 E1.86645
G1 X121.812 Y72.388 E1.89353
G1 X122.025 Y72.724 E1.92062
G1 X122.194 Y73.084 E1.94768
G1 X122.317 Y73.463 E1.97479
G1 X122.374 Y73.758 E1.99524
G1 X122.417 Y74.250 E2.02890
G1 X122.374 Y74.742 E2.06256
G1 X122.317 Y75.037 E2.08301
G1 X122.194 Y75.416 E2.11011
G1 X122.025 Y75.776 E2.13717
G1 X121.812 Y76.112 E2.16426
G1 X121.559 Y76.418 E2.19135
G1 X121.269 Y76.690 E2.21840
G1 X120.947 Y76.924 E2.24552
G1 X120.598 Y77.116 E2.27261
G1 X120.229 Y77.262 E2.29967
G1 X119.843 Y77.361 E2.32674
G1 X119.508 Y77.403 E2.34975
G1 X119.414 Y76.854 F7200.000
G1 X119.086 Y76.854 E2.37205 F1080.000
G1 X118.761 Y76.813 E2.39435
G1 X118.444 Y76.731 E2.41667
G1 X118.139 Y76.611 E2.43896
G1 X117.852 Y76.453 E2.46129
G1 X117.587 Y76.260 E2.48359
G1 X117.309 Y75.988 E2.51010
G1 X117.139 Y75.783 E2.52819
G1 X116.964 Y75.507 E2.55048
G1 X116.824 Y75.210 E2.57281
G1 X116.723 Y74.899 E2.59511
G1 X116.658 Y74.515 E2.62161
G1 X116.641 Y74.250 E2.63969
G1 X116.662 Y73.923 E2.66200
G1 X116.723 Y73.601 E2.68430
G1 X116.824 Y73.290 E2.70660
G1 X116.964 Y72.993 E2.72894
G1 X117.139 Y72.717 E2.75122
G1 X117.348 Y72.464 E2.77355
G1 X117.587 Y72.240 E2.79585
G1 X117.852 Y72.047 E2.81814
G1 X118.139 Y71.890 E2.84047
G1 X118.444 Y71.769 E2.86277
G1 X118.701 Y71.703 E2.88084
G1 X119.086 Y71.646 E2.90736
G1 X119.414 Y71.646 E2.92966 F1080.000
G1 X119.739 Y71.687 E2.95197
G1 X120.056 Y71.769 E2.97427
G1 X120.361 Y71.889 E2.99657
G1 X120.648 Y72.047 E3.01889
G1 X120.913 Y72.240 E3.04122
G1 X121.152 Y72.464 E3.06351
G1 X121.361 Y72.717 E3.08582
G1 X121.536 Y72.993 E3.10813
G1 X121.676 Y73.290 E3.13043
G1 X121.758 Y73.542 E3.14852
G1 X121.838 Y73.923 E3.17503
G1 X121.859 Y74.250 E3.19733
G1 X121.838 Y74.577 E3.21963
G1 X121.777 Y74.899 E3.24194
G1 X121.676 Y75.210 E3.26426
G1 X121.536 Y75.507 E3.28656
G1 X121.361 Y75.783 E3.30887
G1 X121.152 Y76.036 E3.33118
G1 X120.913 Y76.260 E3.35347
G1 X120.648 Y76.453 E3.37580
G1 X120.361 Y76.611 E3.39812
G1 X120.056 Y76.731 E3.42041
G1 X119.739 Y76.813 E3.44272
G1 X119.473 Y76.846 E3.46095
G1 X119.379 Y76.296 F7200.000
G1 X119.121 Y76.296 E3.47848 F540.000
G1 X118.866 Y76.264 E3.49601
G1 X118.591 Y76.190 E3.51538
G1 X118.377 Y76.105 E3.53107
G1 X118.151 Y75.981 E3.54861
G1 X117.943 Y75.830 E3.56614
G1 X117.755 Y75.654 E3.58367
G1 X117.591 Y75.455 E3.60121
G1 X117.453 Y75.238 E3.61874
G1 X117.343 Y75.005 E3.63628
G1 X117.264 Y74.760 E3.65381
G1 X117.216 Y74.507 E3.67135
G1 X117.199 Y74.250 E3.68888
G1 X117.216 Y73.993 E3.70642
G1 X117.264 Y73.740 E3.72395
G1 X117.343 Y73.495 E3.74148
G1 X117.442 Y73.287 E3.75718
G1 X117.591 Y73.045 E3.77654
G1 X117.755 Y72.846 E3.79408
G1 X117.943 Y72.670 E3.81161
G1 X118.151 Y72.519 E3.82915
G1 X118.377 Y72.395 E3.84669
G1 X118.616 Y72.300 E3.86422
G1 X118.866 Y72.236 E3.88176
G1 X119.121 Y72.204 E3.89929
G1 X119.379 Y72.204 E3.91682
G1 X119.607 Y72.232 E3.93250
G1 X119.884 Y72.300 E3.95188 F540.000
G1 X120.123 Y72.395 E3.96941
G1 X120.349 Y72.519 E3.98694
G1 X120.557 Y72.670 E4.00449
G1 X120.745 Y72.846 E4.02201
G1 X120.909 Y73.045 E4.03955
G1 X121.032 Y73.239 E4.05524
G1 X121.157 Y73.495 E4.07461
G1 X121.236 Y73.740 E4.09215
G1 X121.279 Y73.966 E4.10783
G1 X121.301 Y74.250 E4.12720
G1 X121.279 Y74.534 E4.14657
G1 X121.236 Y74.760 E4.16225
G1 X121.157 Y75.005 E4.17979
G1 X121.032 Y75.261 E4.19916
G1 X120.909 Y75.455 E4.21485
G1 X120.745 Y75.654 E4.23238
G1 X120.557 Y75.830 E4.24991
G1 X120.349 Y75.981 E4.26746
G1 X120.123 Y76.105 E4.28499
