; generated by Slic3r 1.1.7 on 2014-10-17 at 21:45:25

; perimeters extrusion width = 0.40mm
; infill extrusion width = 0.67mm
; solid infill extrusion width = 0.67mm
; top infill extrusion width = 0.67mm

G21 ; set units to millimeters
M107
M104 S220 ; set temperature
G28 ; home all axes
M106 S255;
G1 Z200 F1200 ; lift nozzle
M109 S220 ; wait for temperature to be reached
G90 ; use absolute coordinates
G92 E0
M82 ; use absolute distances for extrusion
G1 F1800.000 E-1.00000
G92 E0
G1 Z0.300 F7200.000
G1 X65.840 Y26.761 F7200.000
G1 E1.00000 F1800.000
G1 X66.517 Y25.463 E1.09969 F1080.000
G1 X66.777 Y25.054 E1.13271
G1 X67.353 Y24.259 E1.19950
G1 X68.333 Y23.170 E1.29927
G1 X69.442 Y22.211 E1.39909
G1 X70.661 Y21.400 E1.49880
G1 X71.086 Y21.166 E1.53186
G1 X71.973 Y20.748 E1.59860
G1 X72.423 Y20.570 E1.63155
G1 X73.357 Y20.265 E1.69842
G1 X73.826 Y20.145 E1.73141
G1 X74.788 Y19.960 E1.79815
G1 X75.269 Y19.900 E1.83112
G1 X76.008 Y19.840 E1.88161
G1 X223.741 Y19.833 E11.94112
G1 X224.713 Y19.897 E12.00748 F1080.000
G1 X226.157 Y20.141 E12.10714
G1 X227.560 Y20.563 E12.20693
G1 X228.011 Y20.742 E12.23993
G1 X228.899 Y21.158 E12.30674
G1 X230.152 Y21.916 E12.40644
G1 X230.543 Y22.200 E12.43939
G1 X231.301 Y22.826 E12.50630
G1 X232.327 Y23.872 E12.60608
G1 X232.636 Y24.246 E12.63907
G1 X233.213 Y25.039 E12.70589
G1 X233.946 Y26.306 E12.80558
G1 X234.515 Y27.657 E12.90538
G1 X234.909 Y29.067 E13.00506
G1 X235.125 Y30.518 E13.10492
G1 X235.171 Y31.500 E13.17189
G1 X235.167 Y178.741 E23.19789
G1 X235.103 Y179.713 E23.26425
G1 X234.859 Y181.157 E23.36391
G1 X234.437 Y182.560 E23.46371
G1 X233.842 Y183.899 E23.56347
G1 X233.073 Y185.167 E23.66445
G1 X232.174 Y186.301 E23.76299
G1 X231.128 Y187.327 E23.86275
G1 X229.961 Y188.213 E23.96253
G1 X228.694 Y188.946 E24.06223
G1 X227.343 Y189.515 E24.16202
G1 X225.933 Y189.909 E24.26170
G1 X224.482 Y190.125 E24.36157
G1 X223.500 Y190.171 E24.42854
G1 X76.259 Y190.167 E34.45453
G1 X75.287 Y190.103 E34.52089
G1 X73.843 Y189.859 E34.62056
G1 X72.442 Y189.437 E34.72023
G1 X71.102 Y188.842 E34.82006
G1 X69.848 Y188.084 E34.91982
G1 X68.699 Y187.174 E35.01964
G1 X67.673 Y186.128 E35.11940
G1 X66.776 Y184.945 E35.22045
G1 X66.054 Y183.694 E35.31886
G1 X65.485 Y182.344 E35.41860
G1 X65.087 Y180.915 E35.51962
G1 X64.875 Y179.483 E35.61813
G1 X64.829 Y178.500 E35.68517
G1 X64.844 Y31.019 E45.72750
G1 X64.874 Y30.535 E45.76053
G1 X64.996 Y29.560 E45.82742
G1 X65.087 Y29.084 E45.86044
G1 X65.330 Y28.135 E45.92714
G1 X65.480 Y27.674 E45.96017
G1 X65.818 Y26.817 E46.02290
G1 X66.344 Y26.998 F7200.000
G1 X66.988 Y25.761 E46.11784 F1080.000
G1 X67.248 Y25.352 E46.15084
G1 X67.782 Y24.614 E46.21288
G1 X68.714 Y23.576 E46.30789
G1 X69.769 Y22.662 E46.40294
G1 X70.929 Y21.889 E46.49789
G1 X71.355 Y21.655 E46.53094
G1 X72.178 Y21.266 E46.59293
G1 X72.628 Y21.088 E46.62588
G1 X73.495 Y20.805 E46.68799
G1 X73.964 Y20.685 E46.72097
G1 X74.858 Y20.513 E46.78295
G1 X75.338 Y20.452 E46.81592
G1 X76.025 Y20.397 E46.86283
G1 X223.724 Y20.389 E56.91996
G1 X224.644 Y20.450 E56.98274 F1080.000
G1 X226.018 Y20.680 E57.07765
G1 X227.355 Y21.081 E57.17268
G1 X227.805 Y21.260 E57.20567
G1 X228.630 Y21.647 E57.26772
G1 X229.824 Y22.367 E57.36266
G1 X230.216 Y22.651 E57.39561
G1 X230.920 Y23.232 E57.45775
G1 X231.898 Y24.227 E57.55278
G1 X232.206 Y24.601 E57.58575
G1 X232.743 Y25.337 E57.64781
G1 X233.442 Y26.544 E57.74275
G1 X233.985 Y27.829 E57.83779
G1 X234.362 Y29.171 E57.93271
G1 X234.569 Y30.553 E58.02780
G1 X234.614 Y31.500 E58.09239
G1 X234.611 Y178.724 E68.11720
G1 X234.550 Y179.644 E68.17998
G1 X234.320 Y181.018 E68.27488
G1 X233.919 Y182.355 E68.36992
G1 X233.353 Y183.630 E68.46491
G1 X232.622 Y184.840 E68.56113
G1 X231.768 Y185.920 E68.65491
G1 X230.773 Y186.898 E68.74990
G1 X229.663 Y187.743 E68.84492
G1 X228.456 Y188.442 E68.93986
G1 X227.171 Y188.985 E69.03489
G1 X225.829 Y189.362 E69.12981
G1 X224.447 Y189.569 E69.22491
G1 X223.500 Y189.614 E69.28950
G1 X76.276 Y189.611 E79.31430
G1 X75.356 Y189.550 E79.37708
G1 X73.982 Y189.320 E79.47199
G1 X72.647 Y188.919 E79.56691
G1 X71.370 Y188.354 E79.66197
G1 X70.176 Y187.633 E79.75697
G1 X69.080 Y186.768 E79.85202
G1 X68.102 Y185.773 E79.94702
G1 X67.247 Y184.647 E80.04331
G1 X66.558 Y183.456 E80.13696
G1 X66.015 Y182.172 E80.23193
G1 X65.634 Y180.810 E80.32819
G1 X65.431 Y179.448 E80.42195
G1 X65.386 Y178.500 E80.48660
G1 X65.400 Y31.054 E90.52655
G1 X65.430 Y30.570 E90.55958
G1 X65.544 Y29.665 E90.62169
G1 X65.634 Y29.188 E90.65471
G1 X65.860 Y28.307 E90.71666
G1 X66.009 Y27.846 E90.74968
G1 X66.322 Y27.054 E90.80765
G1 X66.848 Y27.235 F7200.000
G1 X67.458 Y26.060 E90.89783 F1080.000
G1 X67.718 Y25.651 E90.93083
G1 X68.211 Y24.970 E90.98811
G1 X69.095 Y23.982 E91.07835
G1 X70.097 Y23.113 E91.16864
G1 X71.198 Y22.377 E91.25883
G1 X71.623 Y22.143 E91.29187
G1 X72.383 Y21.784 E91.34910
G1 X72.833 Y21.606 E91.38205
G1 X73.634 Y21.345 E91.43940
G1 X74.103 Y21.224 E91.47237
G1 X74.928 Y21.066 E91.52961
G1 X75.408 Y21.005 E91.56257
G1 X76.043 Y20.954 E91.60591
G1 X223.706 Y20.946 E101.66065
G1 X224.574 Y21.003 E101.71986 F1080.000
G1 X225.880 Y21.220 E101.81001
G1 X227.150 Y21.599 E101.90027
G1 X227.600 Y21.777 E101.93326
G1 X228.362 Y22.135 E101.99055
G1 X229.497 Y22.818 E102.08074
G1 X229.888 Y23.102 E102.11368
G1 X230.538 Y23.638 E102.17106
G1 X231.468 Y24.582 E102.26132
G1 X231.777 Y24.956 E102.29429
G1 X232.273 Y25.636 E102.35159
G1 X232.938 Y26.781 E102.44177
G1 X233.455 Y28.001 E102.53204
G1 X233.815 Y29.276 E102.62220
G1 X234.013 Y30.587 E102.71253
G1 X234.057 Y31.500 E102.77474
G1 X234.054 Y178.706 E112.79835
G1 X233.997 Y179.574 E112.85756
G1 X233.780 Y180.880 E112.94771
G1 X233.401 Y182.150 E113.03797
G1 X232.865 Y183.362 E113.12821
G1 X232.171 Y184.512 E113.21967
G1 X231.362 Y185.538 E113.30867
G1 X230.418 Y186.468 E113.39891
G1 X229.364 Y187.273 E113.48916
G1 X228.219 Y187.938 E113.57935
G1 X226.999 Y188.455 E113.66961
G1 X225.724 Y188.815 E113.75978
G1 X224.413 Y189.013 E113.85010
G1 X223.500 Y189.057 E113.91231
G1 X76.294 Y189.054 E123.93592
G1 X75.426 Y188.997 E123.99513
G1 X74.120 Y188.780 E124.08528
G1 X72.851 Y188.401 E124.17545
G1 X71.639 Y187.866 E124.26574
G1 X70.503 Y187.182 E124.35597
G1 X69.461 Y186.362 E124.44626
G1 X68.532 Y185.418 E124.53650
G1 X67.717 Y184.348 E124.62802
G1 X67.062 Y183.219 E124.71691
G1 X66.545 Y181.999 E124.80712
G1 X66.181 Y180.706 E124.89862
G1 X65.987 Y179.413 E124.98761
G1 X65.943 Y178.500 E125.04988
G1 X65.956 Y31.089 E135.08745
G1 X65.986 Y30.605 E135.12047
G1 X66.091 Y29.769 E135.17782
G1 X66.182 Y29.293 E135.21083
G1 X66.389 Y28.479 E135.26803
G1 X66.539 Y28.018 E135.30104
G1 X66.826 Y27.291 E135.35426
G1 F1800.000 E134.35426
G92 E0
G1 X193.886 Y145.491 F7200.000
G1 E1.00000 F1800.000
G1 X193.794 Y145.974 E1.03351 F1080.000
G1 X193.642 Y146.442 E1.06700
G1 X193.433 Y146.887 E1.10049
G1 X193.169 Y147.302 E1.13400
G1 X192.855 Y147.681 E1.16748
G1 X192.497 Y148.018 E1.20098
G1 X192.011 Y148.356 E1.24128
G1 X191.668 Y148.544 E1.26794
G1 X191.210 Y148.725 E1.30142
G1 X190.734 Y148.848 E1.33490
G1 X190.246 Y148.909 E1.36840
G1 X189.754 Y148.909 E1.40191
G1 X189.266 Y148.848 E1.43542
G1 X188.790 Y148.725 E1.46888
G1 X188.332 Y148.544 E1.50237
G1 X187.901 Y148.307 E1.53588
G1 X187.503 Y148.018 E1.56937
G1 X187.145 Y147.681 E1.60287
G1 X186.831 Y147.302 E1.63635
G1 X186.567 Y146.887 E1.66986
G1 X186.358 Y146.442 E1.70335
G1 X186.206 Y145.974 E1.73684
G1 X186.108 Y145.390 E1.77715
G1 X186.083 Y145.000 E1.80379
G1 X186.114 Y144.509 E1.83728
G1 X186.206 Y144.026 E1.87078
G1 X186.358 Y143.558 E1.90426
G1 X186.567 Y143.113 E1.93775
G1 X186.831 Y142.698 E1.97127
G1 X187.145 Y142.319 E2.00475
G1 X187.503 Y141.982 E2.03825
G1 X187.901 Y141.693 E2.07174
G1 X188.332 Y141.456 E2.10525
G1 X188.790 Y141.275 E2.13873
G1 X189.266 Y141.152 E2.17221
G1 X189.754 Y141.091 E2.20571
G1 X190.246 Y141.091 E2.23922
G1 X190.634 Y141.140 E2.26587
G1 X191.210 Y141.275 E2.30616 F1080.000
G1 X191.668 Y141.456 E2.33964
G1 X192.099 Y141.693 E2.37315
G1 X192.497 Y141.982 E2.40664
G1 X192.855 Y142.319 E2.44014
G1 X193.169 Y142.698 E2.47362
G1 X193.433 Y143.113 E2.50712
G1 X193.642 Y143.558 E2.54062
G1 X193.794 Y144.026 E2.57411
G1 X193.886 Y144.509 E2.60762
G1 X193.917 Y145.000 E2.64110
G1 X193.890 Y145.431 E2.67050
G1 X193.332 Y145.421 F7200.000
G1 X193.253 Y145.835 E2.69923 F1080.000
G1 X193.123 Y146.236 E2.72795
G1 X192.943 Y146.618 E2.75667
G1 X192.717 Y146.974 E2.78540
G1 X192.448 Y147.299 E2.81411
G1 X192.141 Y147.588 E2.84283
G1 X191.800 Y147.836 E2.87155
G1 X191.430 Y148.039 E2.90029
G1 X191.038 Y148.194 E2.92900
G1 X190.630 Y148.299 E2.95771
G1 X190.211 Y148.352 E2.98643
G1 X189.789 Y148.352 E3.01517
G1 X189.370 Y148.299 E3.04390
G1 X188.962 Y148.194 E3.07260
G1 X188.570 Y148.039 E3.10132
G1 X188.200 Y147.836 E3.13005
G1 X187.859 Y147.588 E3.15877
G1 X187.552 Y147.299 E3.18749
G1 X187.283 Y146.974 E3.21620
G1 X187.057 Y146.618 E3.24494
G1 X186.877 Y146.236 E3.27366
G1 X186.747 Y145.835 E3.30237
G1 X186.668 Y145.421 E3.33110
G1 X186.641 Y145.000 E3.35982
G1 X186.664 Y144.645 E3.38406
G1 X186.747 Y144.165 E3.41723
G1 X186.877 Y143.764 E3.44595
G1 X187.057 Y143.382 E3.47467
G1 X187.283 Y143.026 E3.50340
G1 X187.552 Y142.701 E3.53211
G1 X187.859 Y142.412 E3.56083
G1 X188.200 Y142.164 E3.58956
G1 X188.570 Y141.961 E3.61829
G1 X188.962 Y141.806 E3.64700
G1 X189.370 Y141.701 E3.67571
G1 X189.789 Y141.648 E3.70444
G1 X190.211 Y141.648 E3.73317 F1080.000
G1 X190.630 Y141.701 E3.76190
G1 X191.038 Y141.806 E3.79061
G1 X191.430 Y141.961 E3.81932
G1 X191.800 Y142.164 E3.84805
G1 X192.141 Y142.412 E3.87677
G1 X192.448 Y142.701 E3.90549
G1 X192.717 Y143.026 E3.93420
G1 X192.943 Y143.382 E3.96293
G1 X193.123 Y143.764 E3.99166
G1 X193.253 Y144.165 E4.02037
G1 X193.332 Y144.579 E4.04911
G1 X193.359 Y145.000 E4.07782
G1 X193.336 Y145.361 E4.10245
G1 X192.779 Y145.351 F7200.000
G1 X192.713 Y145.696 E4.12640 F540.000
G1 X192.604 Y146.031 E4.15035
G1 X192.454 Y146.349 E4.17430
G1 X192.266 Y146.646 E4.19825
G1 X192.042 Y146.917 E4.22219
G1 X191.785 Y147.158 E4.24614
G1 X191.501 Y147.365 E4.27009
G1 X191.192 Y147.534 E4.29404
G1 X190.865 Y147.663 E4.31799
G1 X190.525 Y147.751 E4.34193
G1 X190.176 Y147.795 E4.36588
G1 X189.824 Y147.795 E4.38983
G1 X189.475 Y147.751 E4.41379
G1 X189.135 Y147.663 E4.43772
G1 X188.808 Y147.534 E4.46167
G1 X188.499 Y147.365 E4.48563
G1 X188.215 Y147.158 E4.50957
G1 X187.958 Y146.917 E4.53352
G1 X187.734 Y146.646 E4.55746
G1 X187.546 Y146.349 E4.58142
G1 X187.396 Y146.031 E4.60537
G1 X187.287 Y145.696 E4.62931
G1 X187.220 Y145.320 E4.65533
G1 X187.199 Y145.000 E4.67719
G1 X187.221 Y144.649 E4.70114
G1 X187.287 Y144.304 E4.72509
G1 X187.396 Y143.969 E4.74904
G1 X187.546 Y143.651 E4.77298
G1 X187.734 Y143.354 E4.79694
G1 X187.939 Y143.106 E4.81880
G1 X188.215 Y142.842 E4.84482
G1 X188.499 Y142.635 E4.86876
G1 X188.808 Y142.466 E4.89272
G1 X189.135 Y142.337 E4.91666
G1 X189.475 Y142.249 E4.94060
G1 X189.824 Y142.205 E4.96455
G1 X190.176 Y142.205 E4.98851
G1 X190.494 Y142.245 E5.01037
G1 X190.865 Y142.337 E5.03639 F540.000
G1 X191.192 Y142.466 E5.06033
G1 X191.501 Y142.635 E5.08429
G1 X191.785 Y142.842 E5.10823
G1 X192.042 Y143.083 E5.13218
G1 X192.266 Y143.354 E5.15612
G1 X192.454 Y143.651 E5.18008
G1 X192.604 Y143.969 E5.20402
G1 X192.713 Y144.304 E5.22797
G1 X192.779 Y144.649 E5.25193
G1 X192.801 Y145.000 E5.27587
G1 X192.782 Y145.291 E5.29573
G1 F1800.000 E4.29573
G92 E0
G1 X190.467 Y141.864 F7200.000
G1 X113.432 Y106.887 F7200.000
G1 E1.00000 F1800.000
G1 X113.169 Y107.302 E1.03350 F1080.000
G1 X112.856 Y107.681 E1.06696
G1 X112.497 Y108.018 E1.10048
G1 X112.099 Y108.307 E1.13397
G1 X111.574 Y108.581 E1.17428
G1 X111.210 Y108.725 E1.20092
G1 X110.734 Y108.848 E1.23440
G1 X110.246 Y108.909 E1.26790
G1 X109.754 Y108.909 E1.30140
G1 X109.266 Y108.848 E1.33491
G1 X108.790 Y108.725 E1.36839
G1 X108.332 Y108.544 E1.40187
G1 X107.901 Y108.307 E1.43536
G1 X107.503 Y108.018 E1.46889
G1 X107.145 Y107.681 E1.50237
G1 X106.831 Y107.302 E1.53585
G1 X106.567 Y106.887 E1.56936
G1 X106.358 Y106.442 E1.60285
G1 X106.187 Y105.875 E1.64315
G1 X106.114 Y105.491 E1.66981
G1 X106.083 Y105.000 E1.70329
G1 X106.114 Y104.509 E1.73676
G1 X106.206 Y104.026 E1.77030
G1 X106.358 Y103.558 E1.80377
G1 X106.567 Y103.113 E1.83725
G1 X106.831 Y102.698 E1.87077
G1 X107.145 Y102.319 E1.90424
G1 X107.503 Y101.982 E1.93772
G1 X107.901 Y101.693 E1.97125
G1 X108.332 Y101.456 E2.00474
G1 X108.790 Y101.275 E2.03822
G1 X109.266 Y101.152 E2.07172
G1 X109.754 Y101.091 E2.10521
G1 X110.246 Y101.091 E2.13872
G1 X110.634 Y101.140 E2.16535
G1 X111.210 Y101.275 E2.20565 F1080.000
G1 X111.668 Y101.456 E2.23915
G1 X112.099 Y101.693 E2.27265
G1 X112.497 Y101.982 E2.30614
G1 X112.856 Y102.319 E2.33966
G1 X113.169 Y102.698 E2.37312
G1 X113.432 Y103.113 E2.40662
G1 X113.642 Y103.558 E2.44012
G1 X113.794 Y104.026 E2.47361
G1 X113.886 Y104.509 E2.50710
G1 X113.917 Y105.000 E2.54060
G1 X113.886 Y105.491 E2.57410
G1 X113.794 Y105.974 E2.60759
G1 X113.642 Y106.442 E2.64108
G1 X113.458 Y106.833 E2.67050
G1 X112.943 Y106.618 F7200.000
G1 X112.717 Y106.974 E2.69922 F1080.000
G1 X112.449 Y107.299 E2.72792
G1 X112.141 Y107.588 E2.75666
G1 X111.800 Y107.836 E2.78538
G1 X111.369 Y108.063 E2.81854
G1 X111.038 Y108.194 E2.84279
G1 X110.630 Y108.299 E2.87150
G1 X110.211 Y108.352 E2.90023
G1 X109.789 Y108.352 E2.92896
G1 X109.371 Y108.299 E2.95768
G1 X108.962 Y108.194 E2.98640
G1 X108.570 Y108.039 E3.01511
G1 X108.200 Y107.836 E3.04383
G1 X107.859 Y107.588 E3.07258
G1 X107.552 Y107.299 E3.10129
G1 X107.283 Y106.974 E3.13000
G1 X107.057 Y106.618 E3.15873
G1 X106.877 Y106.236 E3.18745
G1 X106.747 Y105.835 E3.21615
G1 X106.668 Y105.421 E3.24490
G1 X106.641 Y105.000 E3.27361
G1 X106.668 Y104.579 E3.30232
G1 X106.747 Y104.165 E3.33107
G1 X106.877 Y103.764 E3.35978
G1 X107.057 Y103.382 E3.38849
G1 X107.283 Y103.026 E3.41723
G1 X107.552 Y102.701 E3.44593
G1 X107.859 Y102.412 E3.47464
G1 X108.200 Y102.164 E3.50339
G1 X108.570 Y101.961 E3.53211
G1 X108.962 Y101.806 E3.56082
G1 X109.371 Y101.701 E3.58954
G1 X109.789 Y101.648 E3.61826
G1 X110.211 Y101.648 E3.64699 F1080.000
G1 X110.629 Y101.701 E3.67571
G1 X111.038 Y101.806 E3.70443
G1 X111.430 Y101.961 E3.73315
G1 X111.800 Y102.164 E3.76187
G1 X112.141 Y102.412 E3.79059
G1 X112.449 Y102.701 E3.81933
G1 X112.717 Y103.026 E3.84803
G1 X112.943 Y103.382 E3.87676
G1 X113.123 Y103.764 E3.90548
G1 X113.253 Y104.165 E3.93420
G1 X113.332 Y104.579 E3.96292
G1 X113.359 Y105.000 E3.99164
G1 X113.332 Y105.421 E4.02037
G1 X113.253 Y105.835 E4.04909
G1 X113.123 Y106.236 E4.07781
G1 X112.969 Y106.564 E4.10244
G1 X112.454 Y106.349 F7200.000
G1 X112.266 Y106.646 E4.12639 F540.000
G1 X112.042 Y106.917 E4.15034
G1 X111.785 Y107.158 E4.17429
G1 X111.501 Y107.365 E4.19824
G1 X111.164 Y107.545 E4.22426
G1 X110.865 Y107.664 E4.24612
G1 X110.525 Y107.751 E4.27006
G1 X110.176 Y107.795 E4.29401
G1 X109.824 Y107.795 E4.31796
G1 X109.475 Y107.751 E4.34191
G1 X109.135 Y107.664 E4.36586
G1 X108.808 Y107.534 E4.38980
G1 X108.499 Y107.365 E4.41375
G1 X108.215 Y107.158 E4.43771
G1 X107.958 Y106.917 E4.46165
G1 X107.734 Y106.646 E4.48560
G1 X107.546 Y106.349 E4.50955
G1 X107.396 Y106.031 E4.53349
G1 X107.282 Y105.666 E4.55952
G1 X107.221 Y105.351 E4.58138
G1 X107.199 Y105.000 E4.60533
G1 X107.221 Y104.649 E4.62927
G1 X107.287 Y104.303 E4.65323
G1 X107.396 Y103.969 E4.67717
G1 X107.546 Y103.651 E4.70111
G1 X107.734 Y103.354 E4.72507
G1 X107.958 Y103.083 E4.74901
G1 X108.215 Y102.842 E4.77296
G1 X108.499 Y102.635 E4.79691
G1 X108.808 Y102.466 E4.82086
G1 X109.135 Y102.336 E4.84481
G1 X109.475 Y102.249 E4.86875
G1 X109.824 Y102.205 E4.89270
G1 X110.176 Y102.205 E4.91665
G1 X110.494 Y102.245 E4.93852
G1 X110.865 Y102.336 E4.96453 F540.000
G1 X111.192 Y102.466 E4.98848
G1 X111.501 Y102.635 E5.01243
G1 X111.785 Y102.842 E5.03638
G1 X112.042 Y103.083 E5.06033
G1 X112.266 Y103.354 E5.08427
G1 X112.454 Y103.651 E5.10822
G1 X112.604 Y103.969 E5.13217
G1 X112.713 Y104.304 E5.15612
G1 X112.779 Y104.649 E5.18007
G1 X112.801 Y105.000 E5.20402
G1 X112.779 Y105.351 E5.22796
